brudiboard-v1/case/tkl/tkl-side-3.svg

<?xml version="1.0" encoding="UTF-8" standalone="no"?>
<!-- Created with Inkscape (http://www.inkscape.org/) -->

<svg
   width="375mm"
   height="320mm"
   viewBox="0 0 375 320"
   version="1.1"
   id="svg1"
   inkscape:version="1.3.2 (091e20e, 2023-11-25, custom)"
   sodipodi:docname="tkl-side-3.svg"
   xmlns:inkscape="http://www.inkscape.org/namespaces/inkscape"
   xmlns:sodipodi="http://sodipodi.sourceforge.net/DTD/sodipodi-0.dtd"
   xmlns="http://www.w3.org/2000/svg"
   xmlns:svg="http://www.w3.org/2000/svg">
  <sodipodi:namedview
     id="namedview1"
     pagecolor="#505050"
     bordercolor="#eeeeee"
     borderopacity="1"
     inkscape:showpageshadow="0"
     inkscape:pageopacity="0"
     inkscape:pagecheckerboard="0"
     inkscape:deskcolor="#505050"
     inkscape:document-units="mm"
     showgrid="true"
     inkscape:zoom="0.67882162"
     inkscape:cx="623.87524"
     inkscape:cy="243.80485"
     inkscape:window-width="1920"
     inkscape:window-height="1017"
     inkscape:window-x="-8"
     inkscape:window-y="-8"
     inkscape:window-maximized="1"
     inkscape:current-layer="layer2">
    <inkscape:grid
       id="grid1"
       units="mm"
       originx="0"
       originy="0"
       spacingx="0.99999999"
       spacingy="1"
       empcolor="#0099e5"
       empopacity="0.30196078"
       color="#0099e5"
       opacity="0.14901961"
       empspacing="5"
       dotted="false"
       gridanglex="30"
       gridanglez="30"
       visible="true" />
  </sodipodi:namedview>
  <defs
     id="defs1" />
  <g
     inkscape:groupmode="layer"
     id="layer2"
     inkscape:label="Case-TKL"
     style="display:inline">
    <path
       id="rect1-5"
       style="fill:none;fill-opacity:0.248963;stroke:#00ffff;stroke-width:0.0999998;stroke-opacity:1"
       inkscape:label="wall-outter"
       d="M 12.849862 4.8498332 C 11.187878 4.8498332 9.8500448 6.188194 9.8500448 7.8501668 L 9.8500448 144.25011 C 9.8500448 145.91211 11.187878 147.24993 12.849862 147.24993 L 365.85002 147.24993 C 367.51202 147.24993 368.84984 145.91211 368.84984 144.25011 L 368.84984 7.8501668 C 368.84984 6.188194 367.51202 4.8498332 365.85002 4.8498332 L 12.849862 4.8498332 z M 15.000118 9.1498291 A 1.35 1.3500003 0 0 1 16.349906 10.500134 A 1.35 1.3500003 0 0 1 15.000118 11.849923 A 1.35 1.3500003 0 0 1 13.649813 10.500134 A 1.35 1.3500003 0 0 1 15.000118 9.1498291 z M 113.50005 9.1498291 A 1.35 1.3500003 0 0 1 114.84984 10.500134 A 1.35 1.3500003 0 0 1 113.50005 11.849923 A 1.35 1.3500003 0 0 1 112.14974 10.500134 A 1.35 1.3500003 0 0 1 113.50005 9.1498291 z M 265.19983 9.1498291 A 1.35 1.3500003 0 0 1 266.55014 10.500134 A 1.35 1.3500003 0 0 1 265.19983 11.849923 A 1.35 1.3500003 0 0 1 263.85004 10.500134 A 1.35 1.3500003 0 0 1 265.19983 9.1498291 z M 363.69976 9.1498291 A 1.35 1.3500003 0 0 1 365.05007 10.500134 A 1.35 1.3500003 0 0 1 363.69976 11.849923 A 1.35 1.3500003 0 0 1 362.34998 10.500134 A 1.35 1.3500003 0 0 1 363.69976 9.1498291 z M 21.299992 10.300146 L 59.799967 10.300146 C 60.353967 10.300146 60.799906 10.7461 60.799906 11.300085 L 60.799906 15.250232 L 119.30021 15.250232 L 119.30021 11.300085 C 119.30021 10.746099 119.74615 10.300146 120.30015 10.300146 L 158.80013 10.300146 C 159.35413 10.300146 159.80007 10.746099 159.80007 11.300085 L 159.80007 15.250232 L 218.29985 15.250232 L 218.29985 11.300085 C 218.29985 10.746098 218.74579 10.300146 219.29979 10.300146 L 257.79977 10.300146 C 258.35377 10.300146 258.80022 10.746098 258.80022 11.300085 L 258.80022 15.250232 L 317.30001 15.250232 L 317.30001 11.300085 C 317.30001 10.746097 317.74595 10.300146 318.29995 10.300146 L 356.79993 10.300146 C 357.35393 10.300146 357.79987 10.746097 357.79987 11.300085 L 357.79987 15.250232 L 362.45023 15.250232 C 363.00423 15.250232 363.45017 15.696171 363.45017 16.250171 L 363.45017 135.85011 C 363.45017 136.40411 363.00423 136.85004 362.45023 136.85004 L 357.79987 136.85004 L 357.79987 140.83895 C 357.79987 141.39295 357.35393 141.83889 356.79993 141.83889 L 318.29995 141.83889 C 317.74595 141.83889 317.30001 141.39295 317.30001 140.83895 L 317.30001 136.85004 L 271.79995 136.85004 L 271.79995 140.83895 C 271.79995 141.39295 271.35401 141.83889 270.80001 141.83889 L 232.30003 141.83889 C 231.74603 141.83889 231.30009 141.39295 231.30009 140.83895 L 231.30009 136.85004 L 73.800146 136.85004 L 73.800146 140.83895 C 73.800146 141.39295 73.354197 141.83889 72.800208 141.83889 L 34.300232 141.83889 C 33.746232 141.83889 33.299776 141.39295 33.299776 140.83895 L 33.299776 136.85004 L 16.250171 136.85004 C 15.696171 136.85004 15.250232 136.40411 15.250232 135.85011 L 15.250232 16.250171 C 15.250232 15.696171 15.696171 15.250232 16.250171 15.250232 L 20.300053 15.250232 L 20.300053 11.300085 C 20.300053 10.7461 20.745992 10.300146 21.299992 10.300146 z M 15.000118 140.1501 A 1.35 1.3500003 0 0 1 16.349906 141.49989 A 1.35 1.3500003 0 0 1 15.000118 142.8502 A 1.35 1.3500003 0 0 1 13.649813 141.49989 A 1.35 1.3500003 0 0 1 15.000118 140.1501 z M 113.50005 140.1501 A 1.35 1.3500003 0 0 1 114.84984 141.49989 A 1.35 1.3500003 0 0 1 113.50005 142.8502 A 1.35 1.3500003 0 0 1 112.14974 141.49989 A 1.35 1.3500003 0 0 1 113.50005 140.1501 z M 225.20021 140.1501 A 1.35 1.3500003 0 0 1 226.55 141.49989 A 1.35 1.3500003 0 0 1 225.20021 142.8502 A 1.35 1.3500003 0 0 1 223.8499 141.49989 A 1.35 1.3500003 0 0 1 225.20021 140.1501 z M 363.69976 140.1501 A 1.3500003 1.3500003 0 0 1 365.05007 141.49989 A 1.3500003 1.3500003 0 0 1 363.69976 142.8502 A 1.3500003 1.3500003 0 0 1 362.34998 141.49989 A 1.3500003 1.3500003 0 0 1 363.69976 140.1501 z " />
  </g>
</svg>

<?xml version="1.0" encoding="UTF-8" standalone="no"?>
<!-- Created with Inkscape (http://www.inkscape.org/) -->

<svg
   width="375mm"
   height="320mm"
   viewBox="0 0 375 320"
   version="1.1"
   id="svg1"
   inkscape:version="1.3.2 (091e20e, 2023-11-25, custom)"
   sodipodi:docname="tkl-side-3.svg"
   xmlns:inkscape="http://www.inkscape.org/namespaces/inkscape"
   xmlns:sodipodi="http://sodipodi.sourceforge.net/DTD/sodipodi-0.dtd"
   xmlns="http://www.w3.org/2000/svg"
   xmlns:svg="http://www.w3.org/2000/svg">
  <sodipodi:namedview
     id="namedview1"
     pagecolor="#505050"
     bordercolor="#eeeeee"
     borderopacity="1"
     inkscape:showpageshadow="0"
     inkscape:pageopacity="0"
     inkscape:pagecheckerboard="0"
     inkscape:deskcolor="#505050"
     inkscape:document-units="mm"
     showgrid="true"
     inkscape:zoom="0.67882162"
     inkscape:cx="624.61181"
     inkscape:cy="243.80485"
     inkscape:window-width="1920"
     inkscape:window-height="1017"
     inkscape:window-x="-8"
     inkscape:window-y="-8"
     inkscape:window-maximized="1"
     inkscape:current-layer="layer2">
    <inkscape:grid
       id="grid1"
       units="mm"
       originx="0"
       originy="0"
       spacingx="0.99999999"
       spacingy="1"
       empcolor="#0099e5"
       empopacity="0.30196078"
       color="#0099e5"
       opacity="0.14901961"
       empspacing="5"
       dotted="false"
       gridanglex="30"
       gridanglez="30"
       visible="true" />
  </sodipodi:namedview>
  <defs
     id="defs1" />
  <g
     inkscape:groupmode="layer"
     id="layer2"
     inkscape:label="Case-TKL"
     style="display:inline">
    <path
       id="rect1-5"
       style="fill:none;fill-opacity:0.248963;stroke:#00ffff;stroke-width:0.0999998;stroke-opacity:1"
       inkscape:label="wall-outter"
       d="m 12.549844,4.8498332 c -1.661984,0 -2.9998176,1.3383608 -2.9998176,3.0003336 V 144.25011 c 0,1.662 1.3378336,2.99982 2.9998176,2.99982 H 366.15013 c 1.662,0 2.99982,-1.33782 2.99982,-2.99982 V 7.8501668 c 0,-1.6619728 -1.33782,-3.0003336 -2.99982,-3.0003336 z M 14.7001,9.1498291 c 0.74562,1.171e-4 1.349956,0.6046842 1.349788,1.3503049 -1.17e-4,0.745419 -0.604369,1.349672 -1.349788,1.349789 -0.745621,1.68e-4 -1.350189,-0.604168 -1.350305,-1.349789 -1.69e-4,-0.7458227 0.604482,-1.3504734 1.350305,-1.3503049 z m 98.79995,0 c 0.74562,1.16e-4 1.34996,0.6046834 1.34979,1.3503049 -1.2e-4,0.74542 -0.60437,1.349673 -1.34979,1.349789 -0.74562,1.71e-4 -1.35019,-0.604166 -1.35031,-1.349789 -1.7e-4,-0.7458246 0.60449,-1.3504762 1.35031,-1.3503049 z m 151.69978,0 c 0.74582,-1.713e-4 1.35048,0.6044803 1.35031,1.3503049 -1.2e-4,0.745623 -0.60469,1.34996 -1.35031,1.349789 -0.74542,-1.16e-4 -1.34967,-0.604369 -1.34979,-1.349789 -1.7e-4,-0.7456215 0.60417,-1.3501889 1.34979,-1.3503049 z m 98.80005,0 c 0.74582,-1.713e-4 1.35047,0.6044803 1.3503,1.3503049 -1.1e-4,0.745623 -0.60468,1.34996 -1.3503,1.349789 -0.74542,-1.21e-4 -1.34967,-0.604373 -1.34979,-1.349789 -1.6e-4,-0.7456176 0.60417,-1.3501834 1.34979,-1.3503049 z M 20.999974,10.300146 h 38.799993 c 0.554,0 0.999939,0.445954 0.999939,0.999939 v 3.950147 h 58.500304 v -3.950147 c 0,-0.553986 0.44594,-0.999939 0.99994,-0.999939 h 38.49998 c 0.554,0 0.99994,0.445953 0.99994,0.999939 v 3.950147 h 58.49978 v -3.950147 c 0,-0.553987 0.44594,-0.999939 0.99994,-0.999939 h 38.49998 c 0.554,0 1.00045,0.445952 1.00045,0.999939 v 3.950147 h 58.49979 v -3.950147 c 0,-0.553988 0.44594,-0.999939 0.99994,-0.999939 h 38.8001 c 0.55399,0 0.99993,0.445951 0.99993,0.999939 v 3.950147 h 4.65036 c 0.554,0 0.99994,0.445939 0.99994,0.999939 V 135.85011 c 0,0.554 -0.44594,0.99993 -0.99994,0.99993 h -4.65036 v 3.98891 c 0,0.554 -0.44594,0.99994 -0.99993,0.99994 h -38.8001 c -0.554,0 -0.99994,-0.44594 -0.99994,-0.99994 v -3.98891 h -45.50006 v 3.98891 c 0,0.554 -0.44594,0.99994 -0.99994,0.99994 h -38.49998 c -0.554,0 -0.99994,-0.44594 -0.99994,-0.99994 v -3.98891 H 73.800146 v 3.98891 c 0,0.554 -0.445949,0.99994 -0.999938,0.99994 H 34.300232 c -0.554,0 -1.000456,-0.44594 -1.000456,-0.99994 v -3.98891 H 15.950153 c -0.554,0 -0.999939,-0.44593 -0.999939,-0.99993 V 16.250171 c 0,-0.554 0.445939,-0.999939 0.999939,-0.999939 h 4.049882 v -3.950147 c 0,-0.553985 0.445939,-0.999939 0.999939,-0.999939 z M 14.7001,140.1501 c 0.745419,1.2e-4 1.349671,0.60437 1.349788,1.34979 1.71e-4,0.74562 -0.604166,1.35019 -1.349788,1.35031 -0.745825,1.7e-4 -1.350477,-0.60449 -1.350305,-1.35031 1.16e-4,-0.74562 0.604683,-1.34996 1.350305,-1.34979 z m 98.79995,0 c 0.74542,1.2e-4 1.34967,0.60437 1.34979,1.34979 1.7e-4,0.74562 -0.60417,1.35019 -1.34979,1.35031 -0.74583,1.7e-4 -1.35048,-0.60448 -1.35031,-1.35031 1.2e-4,-0.74562 0.60469,-1.34996 1.35031,-1.34979 z m 111.70016,0 c 0.74542,1.2e-4 1.34967,0.60437 1.34979,1.34979 1.7e-4,0.74562 -0.60417,1.35019 -1.34979,1.35031 -0.74583,1.7e-4 -1.35048,-0.60448 -1.35031,-1.35031 1.2e-4,-0.74562 0.60469,-1.34996 1.35031,-1.34979 z m 138.79967,0 c 0.74562,-1.7e-4 1.35019,0.60417 1.3503,1.34979 1.8e-4,0.74583 -0.60448,1.35048 -1.3503,1.35031 -0.74562,-1.2e-4 -1.34996,-0.60469 -1.34979,-1.35031 1.2e-4,-0.74542 0.60437,-1.34967 1.34979,-1.34979 z"
       sodipodi:nodetypes="ssssssssscccccccccccscscssssssssccssssccssssccsssscsssscssssccssssccsssscsssscsscccccccccccccccsssss" />
  </g>
</svg>
